src/icons/service-service-s3.svg

<svg enable-background="new 0 0 12 14" viewBox="0 0 12 14" xmlns="http://www.w3.org/2000/svg"><path d="m1.2 2.5-.9.5v8l.9.5z" fill="#8c3123"/><path d="m6.1 10.3-4.9 1.2v-9l4.9 1.1z" fill="#e05243"/><path d="m3.9 8.5 2.1.2v-3.4l-2.1.2z" fill="#8c3123"/><path d="m6 10.3 4.8 1.2v-8.9l-4.8 1.1z" fill="#8c3123"/><path d="m8.1 8.5-2.1.2v-3.4l2.1.3z" fill="#e05243"/><path d="m8.1 4.1-2.1.4-2.1-.4 2.1-.5z" fill="#5e1f18"/><path d="m8.1 9.9-2.1-.4-2.1.4 2.1.6z" fill="#f2b0a9"/><path d="m3.9 4.1 2.1-.5v-3.5l-2.1 1z" fill="#8c3123"/><path d="m8.1 4.1-2.1-.5v-3.5l2.1 1z" fill="#e05243"/><path d="m6 13.9-2.1-1v-3l2.1.5z" fill="#8c3123"/><path d="m6 13.9 2.1-1v-3l-2.1.5zm4.8-11.4.9.5v8l-.9.5z" fill="#e05243"/></svg>

<svg viewBox="0 0 12 14" xmlns="http://www.w3.org/2000/svg"><path d="M1.2 2.5L.3 3v8l.9.5z" fill="#8c3123"/><path d="M6.1 10.3l-4.9 1.2v-9l4.9 1.1z" fill="#e05243"/><path d="M3.9 8.5l2.1.2V5.3l-2.1.2zM6 10.3l4.8 1.2V2.6L6 3.7z" fill="#8c3123"/><path d="M8.1 8.5L6 8.7V5.3l2.1.3z" fill="#e05243"/><path d="M8.1 4.1L6 4.5l-2.1-.4L6 3.6z" fill="#5e1f18"/><path d="M8.1 9.9L6 9.5l-2.1.4 2.1.6z" fill="#f2b0a9"/><path d="M3.9 4.1L6 3.6V.1l-2.1 1z" fill="#8c3123"/><path d="M8.1 4.1L6 3.6V.1l2.1 1z" fill="#e05243"/><path d="M6 13.9l-2.1-1v-3l2.1.5z" fill="#8c3123"/><path d="M6 13.9l2.1-1v-3l-2.1.5zm4.8-11.4l.9.5v8l-.9.5z" fill="#e05243"/></svg>
